(Exported by FreeCAD)
(Post Processor: linuxcnc_post)
(Output Time:2020-04-22 12:01:45.390255)
(begin preamble)
G17 G54 G40 G49 G80 G90
G20
(begin operation: Fixture)
(machine: not set, in/min)
G54
(finish operation: Fixture)
(begin operation: T1: 1/4 carbide)
(machine: not set, in/min)
(T1: 1/4 carbide)
M5
M6 T1 
G43 H1
M3 S0
(finish operation: T1: 1/4 carbide)
(begin operation: Profile_Edges)
(machine: not set, in/min)
(Profile_Edges)
(Compensated Tool Path. Diameter: 6.35)
G0 Z0.1969
G0 X-0.9671 Y5.0305
G0 Z0.1181
G1 X-0.9671 Y5.0305 Z-0.1250 F10.0000
G2 X-2.8059 Y0.1291 Z-0.1250 I-2.0329 J-2.0329 F35.0000
G2 X-5.8684 Y2.8035 Z-0.1250 I-0.1941 J2.8684 F35.0000
G2 X-3.1941 Y5.8660 Z-0.1250 I2.8684 J0.1941 F35.0000
G2 X-0.9671 Y5.0305 Z-0.1250 I0.1941 J-2.8684 F35.0000
G0 Z0.1969
(finish operation: Profile_Edges)
(begin operation: Contour)
(machine: not set, in/min)
(Contour)
(Compensated Tool Path. Diameter: 6.35)
G0 Z0.1969
G0 X-0.7903 Y5.2073
G0 Z0.1181
G1 X-0.7903 Y5.2073 Z-0.1270 F10.0000
G2 X-2.7978 Y-0.1209 Z-0.1270 I-2.2097 J-2.2097 F35.0000
G2 X-6.1184 Y2.7953 Z-0.1270 I-0.2022 J3.1184 F35.0000
G2 X-3.2022 Y6.1160 Z-0.1270 I3.1184 J0.2022 F35.0000
G2 X-0.7903 Y5.2073 Z-0.1270 I0.2022 J-3.1184 F35.0000
G1 X-0.7903 Y5.2073 Z-0.2540 F10.0000
G2 X-2.7978 Y-0.1209 Z-0.2540 I-2.2097 J-2.2097 F35.0000
G2 X-6.1184 Y2.7953 Z-0.2540 I-0.2022 J3.1184 F35.0000
G2 X-3.2022 Y6.1160 Z-0.2540 I3.1184 J0.2022 F35.0000
G2 X-0.7903 Y5.2073 Z-0.2540 I0.2022 J-3.1184 F35.0000
G1 X-0.7903 Y5.2073 Z-0.2700 F10.0000
G2 X-2.7978 Y-0.1209 Z-0.2700 I-2.2097 J-2.2097 F35.0000
G2 X-6.1184 Y2.7953 Z-0.2700 I-0.2022 J3.1184 F35.0000
G2 X-3.2022 Y6.1160 Z-0.2700 I3.1184 J0.2022 F35.0000
G2 X-0.7903 Y5.2073 Z-0.2700 I0.2022 J-3.1184 F35.0000
G0 Z0.1969
(finish operation: Contour)
(begin operation: Profile_Edges001)
(machine: not set, in/min)
(Profile_Edges001)
(Compensated Tool Path. Diameter: 6.35)
G0 Z0.1969
G0 X-1.3206 Y4.6769
G0 Z0.1181
G1 X-1.3206 Y4.6769 Z-0.1270 F10.0000
G2 X-2.8752 Y0.6259 Z-0.1270 I-1.6794 J-1.6794 F35.0000
G2 X-3.1248 Y5.3693 Z-0.1270 I-0.1248 J2.3717 F35.0000
G2 X-1.3206 Y4.6769 Z-0.1270 I0.1248 J-2.3717 F35.0000
G1 X-1.3206 Y4.6769 Z-0.2540 F10.0000
G2 X-2.8752 Y0.6259 Z-0.2540 I-1.6794 J-1.6794 F35.0000
G2 X-3.1248 Y5.3693 Z-0.2540 I-0.1248 J2.3717 F35.0000
G2 X-1.3206 Y4.6769 Z-0.2540 I0.1248 J-2.3717 F35.0000
G1 X-1.3206 Y4.6769 Z-0.2700 F10.0000
G2 X-2.8752 Y0.6259 Z-0.2700 I-1.6794 J-1.6794 F35.0000
G2 X-3.1248 Y5.3693 Z-0.2700 I-0.1248 J2.3717 F35.0000
G2 X-1.3206 Y4.6769 Z-0.2700 I0.1248 J-2.3717 F35.0000
G0 Z0.1969
(finish operation: Profile_Edges001)
(begin postamble)
M05
G17 G54 G90 G80 G40
M2
